X:1
T:Title
%%score { ( 1 3 ) | ( 2 4 ) }
L:1/8
M:4/4
K:Bb
V:1 treble nm="Grand Piano"
V:3 treble 
V:2 bass 
V:4 bass 
V:1
 z4 z2 [DF]2 | [DB]2 [DB]2 [DB]2 c2 | d2 d2 d2 d2 | c2 B2 e2 d2 |[M:3/4] c6 |[M:1/4] F2 | %6
[M:4/4] [DB]2 [DB]2 [DB]2 c2 | d2 d2 d2 d2 | [Ge]2 [EGc]2 [DFB]2 [CEA]2 |[M:3/4] [B,DB]6 | %10
[M:1/4] z2 |[M:4/4] B6[K:bass][K:treble] z2 | c6 z2 | d6 z2 | f6 [Fd]2 | c2 d2 e2 [FA]2 | %16
 [FB]2 [Fc]2 [Fd]2 [DGB]2 | [FA]3 [FA] [=EG]2 [EG]2 | F6 z2 | B6[K:bass][K:treble] z2 | c6 z2 | %21
 d6 z2 | f6 [Ge]2 | d3 c B2 A2 |[M:3/4] [DB]6 |] %25
V:2
 z4 z2 [B,,B,]2 | [B,,B,]2 [B,,B,]2 [B,,B,]2 [F,A,F]2 | [B,F]2 [B,F]2 [B,F]2 [B,F]2 | %3
 [F,A,E]2 [G,B,D]2[K:treble] [A,CF]2 [B,F]2 |[M:3/4][K:bass] [F,A,F]6 |[M:1/4] [F,A,]2 | %6
[M:4/4] [B,,B,]2 [B,,B,]2 [B,,B,]2[K:treble] [F,A,F]2 | [B,F]2 [B,F]2 [B,F]2 [B,F]2 | %8
 [E,B,]2 E,2 F,2 F,2 |[M:3/4] B,,6 |[M:1/4][K:treble] F2 |[M:4/4] D6[K:bass][K:treble] z2 | %12
 F6[K:bass][K:treble] z2 | F6 [B,CF]2 | [B,DF]6[K:bass] [B,,B,]2 | %15
 [F,A,F]2 [F,B,F]2 [F,CF]2 [E,C]2 | [D,B,]2 [C,A,]2 [B,,B,]2 B,,2 | [C,C]3 [C,C] [C,C]2 [C,B,]2 | %18
 [F,A,]2 F,2 F,2 z2 | D6[K:treble] z2 | F6[K:bass][K:treble] z2 | F6 [B,CF]2 | %22
 [B,DF]6[K:bass] [E,B,]2 | [F,B,F]3 [F,EF] [F,DF]2 [F,CE]2 |[M:3/4] [B,,B,]6 |] %25
V:3
 x8 | x8 | x8 | x8 |[M:3/4] x6 |[M:1/4] x2 |[M:4/4] x8 | x8 | x8 |[M:3/4] x6 |[M:1/4] x2 | %11
[M:4/4] z2[K:bass] F,2 F,2[K:treble] B2 | z2 A,2 A,2 c2 | z2 B,2 B,2 e2 | x8 | x8 | x8 | x8 | %18
 z2 A,2 A,2 F2 | z2[K:bass] F,2 F,2[K:treble] B2 | z2 A,2 A,2 c2 | z2 B,2 B,2 e2 | x8 | x8 | %24
[M:3/4] x6 |] %25
V:4
 x8 | x8 | x8 | x4[K:treble] x4 |[M:3/4][K:bass] x6 |[M:1/4] x2 |[M:4/4] x6[K:treble] x2 | x8 | %8
 x8 |[M:3/4] x6 |[M:1/4][K:treble] x2 |[M:4/4] z2[K:bass] B,,2 B,,2[K:treble] D2 | %12
 z2[K:bass] F,2 F,2[K:treble] F2 | x8 | x6[K:bass] x2 | x8 | x8 | x8 | x8 | %19
 z2 B,,2 B,,2[K:treble] D2 | z2[K:bass] F,2 F,2[K:treble] F2 | x8 | x6[K:bass] x2 | x8 | %24
[M:3/4] x6 |] %25

